X: 20773
T: Johnny Leary's
R: polka
M: 2/4
K: Dmajor
AF FE|DF FD/F/|AF AF|E2 EA/B/|
AF F/A/F/E/|DF FD/F/|AF Bc|df/d/ cB|
AF FF/E/|DF FD/F/|AF AF|E2 EE/F/|
GE E/G/E/D/|CE E2|FA Bc|d2 dA||
|:dc/d/ fe|cB/c/ ec|BA Bc|BA FA|
dc/d/ fe|cB/c/ ec|Bd ce|1 d2 dA:|2 d2 c2||

